X: 17902
T: Hounds Of Letterfrack, The
R: jig
M: 6/8
K: Cmajor
d|:ecG EGc|ecG EGF|EGc edc|BA^G A2B|B^AB b^ab|
[1 a3a2g|g^fg ag=f|e3ecd:|2 a3a2^F|GBd fdB|c3c2A||
|:GEG cGc|e3e2d|cBc aca|g3gac'|b3 b^ab|
[1 a3a2 g|g^fg ag=f|e3ecA:|2 a3a2^F|GBd fdB|c3ccd||

